Delta/apps/scalable/preferences-desktop-font.svg

<?xml version="1.0" encoding="UTF-8" standalone="no"?>
<svg
   xmlns:dc="http://purl.org/dc/elements/1.1/"
   xmlns:cc="http://creativecommons.org/ns#"
   xmlns:rdf="http://www.w3.org/1999/02/22-rdf-syntax-ns#"
   xmlns:svg="http://www.w3.org/2000/svg"
   xmlns="http://www.w3.org/2000/svg"
   xmlns:sodipodi="http://sodipodi.sourceforge.net/DTD/sodipodi-0.dtd"
   xmlns:inkscape="http://www.inkscape.org/namespaces/inkscape"
   width="192"
   height="192"
   viewBox="0 0 192 192"
   version="1.1"
   id="svg883"
   sodipodi:docname="preferences-desktop-font.svg"
   inkscape:version="0.92.5 (2060ec1f9f, 2020-04-08)">
  <metadata
     id="metadata889">
    <rdf:RDF>
      <cc:Work
         rdf:about="">
        <dc:format>image/svg+xml</dc:format>
        <dc:type
           rdf:resource="http://purl.org/dc/dcmitype/StillImage" />
        <dc:title></dc:title>
      </cc:Work>
    </rdf:RDF>
  </metadata>
  <defs
     id="defs887" />
  <sodipodi:namedview
     pagecolor="#ffffff"
     bordercolor="#666666"
     borderopacity="1"
     objecttolerance="10"
     gridtolerance="10"
     guidetolerance="10"
     inkscape:pageopacity="0"
     inkscape:pageshadow="2"
     inkscape:window-width="1280"
     inkscape:window-height="745"
     id="namedview885"
     showgrid="false"
     inkscape:zoom="3.71875"
     inkscape:cx="85.92357"
     inkscape:cy="81.005218"
     inkscape:window-x="-12"
     inkscape:window-y="-2"
     inkscape:window-maximized="1"
     inkscape:current-layer="svg883" />
  <circle
     style="fill:#8c72bd;fill-rule:evenodd;stroke:#8c72bd;fill-opacity:1;stroke-opacity:1"
     id="circle873"
     r="88"
     cy="96"
     cx="96" />
  <path
     style="font-style:normal;font-variant:normal;font-weight:normal;font-stretch:normal;font-size:75.49153137px;line-height:1.25;font-family:'Now Alt';-inkscape-font-specification:'Now Alt';letter-spacing:0px;word-spacing:0px;fill:#ffffff;fill-opacity:1;stroke:none;stroke-width:1.17955518;stroke-opacity:1"
     d="M 76.521484 49.285156 L 76.521484 119.24023 L 82.330078 119.24023 L 82.330078 114.29688 C 85.890208 117.81358 90.667617 120 96.007812 120 C 106.78188 120 115.49609 111.16076 115.49609 100.23047 C 115.49609 89.300164 106.78188 80.460938 96.007812 80.460938 C 90.667618 80.460938 85.890208 82.647357 82.330078 86.164062 L 82.330078 49.285156 L 76.521484 49.285156 z M 46.488281 80.460938 C 37.400582 80.460938 30 86.449137 30 95.478516 L 35.808594 95.478516 C 35.808594 89.585657 40.492211 86.353516 46.394531 86.353516 C 52.296851 86.353516 56.982422 89.585657 56.982422 95.478516 L 56.982422 98.615234 L 42.648438 98.615234 C 34.872364 98.615234 30 102.79729 30 109.35547 C 30 115.81861 34.872426 120 42.742188 120 C 49.394008 120 54.734231 117.43332 57.451172 113.15625 C 58.669111 117.24322 61.667058 120 66.164062 120 C 67.194626 120 68.225108 119.71546 68.974609 119.24023 L 68.974609 114.29688 L 66.632812 114.29688 C 64.571684 114.29688 62.791016 112.87217 62.791016 109.35547 L 62.791016 95.478516 C 62.791016 86.449137 55.482294 80.460937 46.488281 80.460938 z M 143.44922 80.460938 C 132.67514 80.460938 123.96289 89.300164 123.96289 100.23047 C 123.96289 111.16076 132.67514 120 143.44922 120 C 152.16217 120 159.47043 114.29637 162 106.3125 L 155.81641 106.3125 C 153.56791 110.96975 148.88311 114.10742 143.44922 114.10742 C 135.86052 114.10742 129.77148 108.02425 129.77148 100.23047 C 129.77148 92.436686 135.86052 86.353516 143.44922 86.353516 C 148.88311 86.353516 153.56791 89.491179 155.81641 94.148438 L 162 94.148438 C 159.47043 86.164565 152.16217 80.460937 143.44922 80.460938 z M 96.007812 86.353516 C 103.5965 86.353516 109.6875 92.531732 109.6875 100.23047 C 109.6875 107.9292 103.5965 114.10742 96.007812 114.10742 C 88.419115 114.10742 82.330078 107.9292 82.330078 100.23047 C 82.330078 92.531732 88.419115 86.353516 96.007812 86.353516 z M 43.865234 103.55664 L 56.982422 103.55664 L 56.982422 106.02734 C 55.10867 111.44498 50.236055 114.86719 43.958984 114.86719 C 39.36829 114.86719 36.371094 112.68143 36.371094 109.25977 C 36.371094 105.83812 39.274541 103.55664 43.865234 103.55664 z "
     id="path814" />
</svg>

<svg width="192" height="192" version="1.1" viewBox="0 0 192 192" xmlns="http://www.w3.org/2000/svg">
 <circle cx="96" cy="96" r="88" style="fill-rule:evenodd;fill:#8c72bd;stroke:#8c72bd"/>
 <path d="m76.521 49.285v69.955h5.8086v-4.9434c3.5601 3.5167 8.3375 5.7031 13.678 5.7031 10.774 0 19.488-8.8392 19.488-19.77 0-10.93-8.7142-19.77-19.488-19.77-5.3402 0-10.118 2.1864-13.678 5.7031v-36.879h-5.8086zm-30.033 31.176c-9.0877 0-16.488 5.9882-16.488 15.018h5.8086c0-5.8929 4.6836-9.125 10.586-9.125s10.588 3.2321 10.588 9.125v3.1367h-14.334c-7.7761 0-12.648 4.1821-12.648 10.74 0 6.4631 4.8724 10.645 12.742 10.645 6.6518 0 11.992-2.5667 14.709-6.8438 1.2179 4.087 4.2159 6.8438 8.7129 6.8438 1.0306 0 2.061-0.28454 2.8105-0.75977v-4.9434h-2.3418c-2.0611 0-3.8418-1.4247-3.8418-4.9414v-13.877c0-9.0294-7.3087-15.018-16.303-15.018zm96.961 0c-10.774 0-19.486 8.8392-19.486 19.77 0 10.93 8.7122 19.77 19.486 19.77 8.713 0 16.021-5.7036 18.551-13.688h-6.1836c-2.2485 4.6572-6.9333 7.7949-12.367 7.7949-7.5887 0-13.678-6.0832-13.678-13.877 0-7.7938 6.089-13.877 13.678-13.877 5.4339 0 10.119 3.1377 12.367 7.7949h6.1836c-2.5296-7.9839-9.8378-13.688-18.551-13.688zm-47.441 5.8926c7.5887 0 13.68 6.1782 13.68 13.877 0 7.6987-6.091 13.877-13.68 13.877-7.5887 0-13.678-6.1782-13.678-13.877 0-7.6987 6.089-13.877 13.678-13.877zm-52.143 17.203h13.117v2.4707c-1.8738 5.4176-6.7464 8.8398-13.023 8.8398-4.5907 0-7.5879-2.1858-7.5879-5.6074 0-3.4216 2.9034-5.7031 7.4941-5.7031z" style="fill:#fff"/>
</svg>
